svg/azure-vm.svg

<?xml version="1.0" encoding="UTF-8"?>
<svg xmlns="http://www.w3.org/2000/svg" xmlns:xlink="http://www.w3.org/1999/xlink" width="32" height="32" viewBox="0 0 32 32">
<defs>
<linearGradient id="linear-pattern-0" gradientUnits="userSpaceOnUse" x1="8.88" y1="12.21" x2="8.88" y2="0.21" gradientTransform="matrix(1.777778, 0.00266842, -0.00266842, 1.777778, 0, 0)">
<stop offset="0" stop-color="rgb(0%, 47.058824%, 83.137255%)" stop-opacity="1"/>
<stop offset="0.82" stop-color="rgb(36.862745%, 62.745098%, 93.72549%)" stop-opacity="1"/>
</linearGradient>
<linearGradient id="linear-pattern-1" gradientUnits="userSpaceOnUse" x1="8.88" y1="16.84" x2="8.88" y2="12.21" gradientTransform="matrix(1.777778, 0.00266842, -0.00266842, 1.777778, 0, 0)">
<stop offset="0.15" stop-color="rgb(80%, 80%, 80%)" stop-opacity="1"/>
<stop offset="1" stop-color="rgb(43.921569%, 43.921569%, 43.921569%)" stop-opacity="1"/>
</linearGradient>
</defs>
<path fill-rule="nonzero" fill="url(#linear-pattern-0)" d="M 0.851562 0.375 L 30.71875 0.375 C 31.308594 0.378906 31.78125 0.851562 31.785156 1.441406 L 31.785156 20.640625 C 31.785156 20.925781 31.671875 21.195312 31.472656 21.394531 C 31.273438 21.59375 31 21.707031 30.71875 21.707031 L 0.851562 21.707031 C 0.261719 21.707031 -0.214844 21.230469 -0.214844 20.640625 L -0.214844 1.441406 C -0.214844 0.851562 0.265625 0.375 0.851562 0.375 M 0.851562 0.375 "/>
<path fill-rule="nonzero" fill="rgb(31.372549%, 90.196078%, 100%)" fill-opacity="1" d="M 21.121094 7.929688 L 21.121094 14.132812 L 15.785156 17.261719 L 15.785156 11.039062 Z M 21.121094 7.929688 "/>
<path fill-rule="nonzero" fill="rgb(76.470588%, 94.509804%, 100%)" fill-opacity="1" d="M 21.121094 7.929688 L 15.785156 11.058594 L 10.453125 7.929688 L 15.785156 4.816406 Z M 21.121094 7.929688 "/>
<path fill-rule="nonzero" fill="rgb(61.176471%, 92.156863%, 100%)" fill-opacity="1" d="M 15.785156 11.058594 L 15.785156 17.261719 L 10.453125 14.132812 L 10.453125 7.929688 Z M 15.785156 11.058594 "/>
<path fill-rule="nonzero" fill="rgb(76.470588%, 94.509804%, 100%)" fill-opacity="1" d="M 10.453125 14.132812 L 15.785156 11.039062 L 15.785156 17.261719 Z M 10.453125 14.132812 "/>
<path fill-rule="nonzero" fill="rgb(61.176471%, 92.156863%, 100%)" fill-opacity="1" d="M 21.121094 14.132812 L 15.785156 11.039062 L 15.785156 17.261719 Z M 21.121094 14.132812 "/>
<path fill-rule="nonzero" fill="url(#linear-pattern-1)" d="M 22.203125 28.160156 C 19.039062 27.664062 18.914062 25.386719 18.914062 21.707031 L 12.640625 21.707031 C 12.640625 25.386719 12.535156 27.664062 9.367188 28.160156 C 8.464844 28.261719 7.78125 29.027344 7.785156 29.9375 L 23.785156 29.9375 C 23.792969 29.027344 23.109375 28.257812 22.203125 28.160156 "/>
</svg>

<svg role="img" viewBox="0 0 32 32" height="32" width="32" xmlns="http://www.w3.org/2000/svg"><defs><linearGradient gradientTransform="rotate(.086)scale(1.77778)" gradientUnits="userSpaceOnUse" id="380__378__237__235__485__483__129__127__128__126__489__487__124__122__16__14__50__48__486__484__azure-vm_svg__svg/azure-vm.svg269__svg/azure-vm.svg265__azure-vm-lp-0" x1="8.88" x2="8.88" y1="12.21" y2=".21"><stop offset="0" stop-color="rgb(0%, 47.058824%, 83.137255%)"/><stop offset=".82" stop-color="rgb(36.862745%, 62.745098%, 93.72549%)"/></linearGradient><linearGradient gradientTransform="rotate(.086)scale(1.77778)" gradientUnits="userSpaceOnUse" id="381__379__238__236__486__484__130__128__129__127__490__488__125__123__17__15__51__49__487__485__azure-vm_svg__svg/azure-vm.svg271__svg/azure-vm.svg267__azure-vm-lp-1" x1="8.88" x2="8.88" y1="16.84" y2="12.21"><stop offset=".15" stop-color="rgb(80%, 80%, 80%)"/><stop offset="1" stop-color="rgb(43.921569%, 43.921569%, 43.921569%)"/></linearGradient></defs><path d="M.852.375h29.867a1.07 1.07 0 0 1 1.066 1.066v19.2a1.064 1.064 0 0 1-1.066 1.066H.852c-.59 0-1.067-.477-1.067-1.066V1.44C-.215.851.265.375.852.375m0 0" fill="url(#380__378__237__235__485__483__129__127__128__126__489__487__124__122__16__14__50__48__486__484__azure-vm_svg__svg/azure-vm.svg269__svg/azure-vm.svg265__azure-vm-lp-0)"/><path d="M21.121 7.93v6.203l-5.336 3.129v-6.223Zm0 0" fill="rgb(31.372549%, 90.196078%, 100%)"/><path d="m21.121 7.93-5.336 3.129-5.332-3.13 5.332-3.113Zm0 0" fill="rgb(76.470588%, 94.509804%, 100%)"/><path d="M15.785 11.059v6.203l-5.332-3.13V7.93Zm0 0" fill="rgb(61.176471%, 92.156863%, 100%)"/><path d="m10.453 14.133 5.332-3.094v6.223Zm0 0" fill="rgb(76.470588%, 94.509804%, 100%)"/><path d="m21.121 14.133-5.336-3.094v6.223Zm0 0" fill="rgb(61.176471%, 92.156863%, 100%)"/><path d="M22.203 28.16c-3.164-.496-3.289-2.773-3.289-6.453h-6.273c0 3.68-.106 5.957-3.274 6.453a1.782 1.782 0 0 0-1.582 1.777h16a1.772 1.772 0 0 0-1.582-1.777" fill="url(#381__379__238__236__486__484__130__128__129__127__490__488__125__123__17__15__51__49__487__485__azure-vm_svg__svg/azure-vm.svg271__svg/azure-vm.svg267__azure-vm-lp-1)"/></svg>
